X: 1
T: Dusty Road, The
M: 4/4
L: 1/8
R: reel
K: Gmaj
dc |: BG (3GFG DG (3GFG |BGBd edcB | cA (3AGA EA (3AGA | cAce fedc |
BG (3GFG DG (3GFG | BGBd e2 cd | ecdB cBAG |1 FGAF G2 dc :
2 FGAF G2 ef |:gd (3dcd Gd (3dcd | gdga bagf | ea (3aga ea (3aga | fgag fdef | 
gd (3dcd Gd (3dcd | BGBd e2 cd | ecdB cBAG |1 FGAF G2 ef :2 FGAF G2 z2 ||
